symbols/web/edit_attributes/materialsymbolsrounded/edit_attributes_wght600grad200_24px.svg

<svg xmlns="http://www.w3.org/2000/svg" height="24" width="24"><path d="M6.925 17.95q-2.45 0-4.187-1.75Q1 14.45 1 12t1.738-4.2q1.737-1.75 4.187-1.75h10.15q2.45 0 4.188 1.75Q23 9.55 23 12t-1.737 4.2q-1.738 1.75-4.188 1.75Zm0-3.075h10.15q1.175 0 2.012-.838.838-.837.838-2.037t-.838-2.038q-.837-.837-2.012-.837H6.925q-1.175 0-2.013.837-.837.838-.837 2.038 0 1.2.837 2.037.838.838 2.013.838Zm1.05-1.05q.3 0 .575-.1.275-.1.5-.35l1.975-1.975q.25-.25.25-.613 0-.362-.25-.612t-.625-.25q-.375 0-.625.25l-1.8 1.8-.4-.375q-.275-.275-.612-.275-.338 0-.613.275-.25.25-.25.6t.25.625l.55.55q.225.25.512.35.288.1.563.1ZM12 12Z"/></svg>

<svg xmlns="http://www.w3.org/2000/svg" height="24" width="24"><path d="M6.925 17.95Q4.475 17.95 2.738 16.2Q1 14.45 1 12Q1 9.55 2.738 7.8Q4.475 6.05 6.925 6.05H17.075Q19.525 6.05 21.263 7.8Q23 9.55 23 12Q23 14.45 21.263 16.2Q19.525 17.95 17.075 17.95ZM6.925 14.875H17.075Q18.25 14.875 19.087 14.037Q19.925 13.2 19.925 12Q19.925 10.8 19.087 9.962Q18.25 9.125 17.075 9.125H6.925Q5.75 9.125 4.912 9.962Q4.075 10.8 4.075 12Q4.075 13.2 4.912 14.037Q5.75 14.875 6.925 14.875ZM7.975 13.825Q8.275 13.825 8.55 13.725Q8.825 13.625 9.05 13.375L11.025 11.4Q11.275 11.15 11.275 10.787Q11.275 10.425 11.025 10.175Q10.775 9.925 10.4 9.925Q10.025 9.925 9.775 10.175L7.975 11.975L7.575 11.6Q7.3 11.325 6.963 11.325Q6.625 11.325 6.35 11.6Q6.1 11.85 6.1 12.2Q6.1 12.55 6.35 12.825L6.9 13.375Q7.125 13.625 7.412 13.725Q7.7 13.825 7.975 13.825ZM12 12Q12 12 12 12Q12 12 12 12Q12 12 12 12Q12 12 12 12Q12 12 12 12Q12 12 12 12Q12 12 12 12Q12 12 12 12Z"/></svg>
